X: 61
T:Thames Hornpipe
% Nottingham Music Database
S:BSDB, KCC p23
M:4/4
L:1/8
R:Hornpipe
K:G
dc|"G"BgdB "D7"AecA|"G"GdBG "D7"FcAF|"G"GDEF GABc|"A7"^cded "D7"fed=c|
"G"BgdB "D7"AecA|"G"GdBG "D7"FcAF|"G"GDEF GABc|"D7"^cdef "G"g2:|:
K:D
A2|"D"Adcd edcd|"Em"Be^de fede|"A7"gfed cBAG|"D"FA"E7"^GB "A7"A2A2|
"D"Adcd edcd|"Em"Be^de fede|"A7"gfed cABc|"D"d2f2 d2:|


